assets/img/braze_icons/moon-02.svg

<svg fill="none" height="24" viewBox="0 0 24 24" width="24" xmlns="http://www.w3.org/2000/svg"><path d="m11.5395 2.91375c.4094-.23338.6003-.72096.4582-1.17032-.1421-.44935-.5786-.73849-1.0478-.69401-5.58306.52936-9.9499 5.22936-9.9499 10.95048 0 6.0751 4.92487 11 11 11 5.7208 0 10.4206-4.3664 10.9504-9.949.0445-.4692-.2446-.9058-.694-1.0479-.4493-.1422-.9369.0487-1.1703.4582-1.2063 2.1159-3.4806 3.5389-6.0861 3.5389-3.866 0-7-3.134-7-6.99998 0-2.60566 1.4232-4.88017 3.5395-6.08637z" fill="#801ed7"/></svg>

<svg width="24" height="24" viewBox="0 0 24 24" fill="none" xmlns="http://www.w3.org/2000/svg">
<path d="M11.5395 2.91375C11.9489 2.68037 12.1398 2.19279 11.9977 1.74343C11.8556 1.29408 11.4191 1.00494 10.9499 1.04942C5.36684 1.57878 1 6.27878 1 11.9999C1 18.075 5.92487 22.9999 12 22.9999C17.7208 22.9999 22.4206 18.6335 22.9504 13.0509C22.9949 12.5817 22.7058 12.1451 22.2564 12.003C21.8071 11.8608 21.3195 12.0517 21.0861 12.4612C19.8798 14.5771 17.6055 16.0001 15 16.0001C11.134 16.0001 8 12.8661 8 9.00012C8 6.39446 9.4232 4.11995 11.5395 2.91375Z" fill="#801ED7"/>
</svg>
